svgs/sharp-regular/family-dress.svg

<svg xmlns="http://www.w3.org/2000/svg" viewBox="0 0 512 512"><!--! Font Awesome Pro 6.6.0 by @fontawesome - https://fontawesome.com License - https://fontawesome.com/license (Commercial License) Copyright 2024 Fonticons, Inc. --><path d="M64 64a64 64 0 1 1 128 0A64 64 0 1 1 64 64zm36.2 144L63.6 336l80.4 0 0 48-32 0 0 104 0 24-48 0 0-24 0-104-14.1 0L0 384l13.7-48L64 160l113.6 0c-1 5.2-1.6 10.5-1.6 16c0 11.4 2.4 22.2 6.7 32l-26.9 0L128 208l-27.8 0zm229.1 0c4.3-9.8 6.7-20.6 6.7-32c0-5.5-.6-10.8-1.6-16L448 160l50.3 176L512 384l-49.9 0L448 384l0 104 0 24-48 0 0-24 0-104-32 0 0-48 80.4 0L411.8 208 384 208l-27.8 0-26.9 0zM320 64a64 64 0 1 1 128 0A64 64 0 1 1 320 64zm-64 64a48 48 0 1 1 0 96 48 48 0 1 1 0-96zm80 240l0 48-32 0 0 96-96 0 0-96-32 0 0-48 0-64 0-48 48 0 64 0 48 0 0 48 0 64zm-112 0l64 0 0-64-64 0 0 64z"/></svg>

<svg xmlns="http://www.w3.org/2000/svg" viewBox="0 0 512 512"><!--! Font Awesome Pro 6.4.2 by @fontawesome - https://fontawesome.com License - https://fontawesome.com/license (Commercial License) Copyright 2023 Fonticons, Inc. --><path d="M64 64a64 64 0 1 1 128 0A64 64 0 1 1 64 64zm36.2 144L63.6 336H144v48H112V488v24H64V488 384H49.9 0l13.7-48L64 160H177.6c-1 5.2-1.6 10.5-1.6 16c0 11.4 2.4 22.2 6.7 32H155.8 128 100.2zm229.1 0c4.3-9.8 6.7-20.6 6.7-32c0-5.5-.6-10.8-1.6-16H448l50.3 176L512 384H462.1 448V488v24H400V488 384H368V336h80.4L411.8 208H384 356.2 329.3zM320 64a64 64 0 1 1 128 0A64 64 0 1 1 320 64zm-64 64a48 48 0 1 1 0 96 48 48 0 1 1 0-96zm80 240v48H304v96H208V416H176V368 304 256h48 64 48v48 64zm-112 0h64V304H224v64z"/></svg>
